resources/haticons/SVG/queue_music.svg

<!-- Generated by IcoMoon.io -->
<svg version="1.1" xmlns="http://www.w3.org/2000/svg" width="24" height="24" viewBox="0 0 24 24">
<title>queue_music</title>
<path d="M17.016 6h4.969v2.016h-3v9q0 1.219-0.891 2.109t-2.109 0.891-2.109-0.891-0.891-2.109 0.891-2.109 2.109-0.891q0.375 0 1.031 0.188v-8.203zM3 15.984v-1.969h8.016v1.969h-8.016zM15 9.984v2.016h-12v-2.016h12zM15 6v2.016h-12v-2.016h12z"></path>
</svg>

<svg xmlns="http://www.w3.org/2000/svg" width="24" height="24"><path d="M17.016 6h4.969v2.016h-3v9q0 1.219-.891 2.109t-2.109.891-2.109-.891-.891-2.109.891-2.109 2.109-.891q.375 0 1.031.188V6.001zM3 15.984v-1.969h8.016v1.969H3zm12-6V12H3V9.984h12zM15 6v2.016H3V6h12z"/></svg>
